svgs/thin/rotate.svg

<svg xmlns="http://www.w3.org/2000/svg" viewBox="0 0 512 512"><!--! Font Awesome Pro 6.3.0 by @fontawesome - https://fontawesome.com License - https://fontawesome.com/license (Commercial License) Copyright 2023 Fonticons, Inc. --><path d="M480.8 33.92c-9.438-3.859-19.66-1.812-26.84 5.346l-66.36 66.38C350.9 73.71 303.9 56 254.9 56c-98.86 0-182.5 70.09-198.8 166.7C55.38 227 58.31 231.2 62.67 231.9C69.38 233 71.66 226.7 71.89 225.3C86.92 136.5 163.9 72 254.9 72c44.73 0 87.58 16.11 121.3 45.05l-64.96 64.98c-7.188 7.176-9.219 17.46-5.344 26.84c3.789 9.172 12.23 14.87 22.1 15.12h143.9C485.3 223.7 496 212.9 496 199.4V56.68C496 46.54 490.2 37.81 480.8 33.92zM480 199.4c0 4.752-3.875 8.629-8.625 8.629h-142.7c-7.684 0-11.53-9.291-6.094-14.72l142.7-142.8C470.3 45.57 480 48.44 480 56.68V199.4zM449.3 280.1c-4.266-.625-8.484 2.203-9.219 6.562C425.1 375.5 348.1 440 257.1 440c-44.73 0-87.58-16.11-121.3-45.05l64.96-64.98c7.188-7.174 9.234-17.62 5.359-26.99C202.3 293.8 193.8 288.3 183.1 288H40.05C26.68 288.3 16 299.1 16 312.6v142.8c0 10.14 5.812 18.87 15.19 22.76c9.438 3.861 19.66 1.814 26.84-5.346l66.36-66.38C161.1 438.3 208.1 456 257.1 456c98.86 0 182.5-70.09 198.8-166.7C456.6 284.1 453.7 280.8 449.3 280.1zM46.72 461.4C41.66 466.5 32 463.5 32 455.3V312.6c0-4.752 3.875-8.629 8.625-8.629h142.7c7.684 0 11.53 9.289 6.094 14.72L46.72 461.4z"/></svg>

<svg xmlns="http://www.w3.org/2000/svg" viewBox="0 0 512 512"><!-- Font Awesome Pro 6.0.0-alpha2 by @fontawesome - https://fontawesome.com License - https://fontawesome.com/license (Commercial License) --><path d="M480.812 33.92C471.375 30.061 461.156 32.107 453.969 39.266L387.607 105.65C350.854 73.715 303.895 56 254.922 56C156.062 56 72.453 126.094 56.109 222.672C55.375 227.016 58.312 231.156 62.672 231.891C69.381 233.047 71.664 226.672 71.891 225.328C86.922 136.484 163.891 72 254.922 72C299.648 72 342.502 88.109 376.211 117.051L311.25 182.035C304.062 189.211 302.031 199.494 305.906 208.873C309.695 218.045 318.143 223.736 328.01 223.988H471.838C485.205 223.727 496 212.867 496 199.447V56.678C496 46.535 490.188 37.812 480.812 33.92ZM480 199.447C480 204.199 476.125 208.076 471.375 208.076H328.656C320.973 208.076 317.131 198.785 322.563 193.352L465.281 50.582C470.297 45.566 480 48.443 480 56.678V199.447ZM449.328 280.109C445.062 279.484 440.844 282.313 440.109 286.672C425.078 375.516 348.109 440 257.078 440C212.352 440 169.496 423.891 135.787 394.947L200.75 329.963C207.938 322.789 209.969 312.504 206.094 303.125C202.305 293.955 193.857 288.264 183.99 288.012H40.162C26.795 288.273 16 299.133 16 312.551V455.32C16 465.465 21.812 474.188 31.188 478.078C40.625 481.939 50.844 479.893 58.031 472.732L124.393 406.348C161.146 438.283 208.105 456 257.078 456C355.938 456 439.547 385.906 455.891 289.328C456.625 284.984 453.688 280.844 449.328 280.109ZM46.719 461.416C41.66 466.479 32 463.477 32 455.32V312.551C32 307.799 35.875 303.922 40.625 303.922H183.344C191.027 303.922 194.869 313.211 189.437 318.646L46.719 461.416Z"/></svg>
